icons/phone-lock-fill.svg

<svg xmlns="http://www.w3.org/2000/svg" width="24" height="24" fill="none"><g clip-path="url(#a)"><g><path fill="#121212" d="M18 2C18.2652 2 18.5196 2.10536 18.7071 2.29289C18.8946 2.48043 19 2.73478 19 3L19.001 10.1C17.7013 9.83476 16.3495 10.0966 15.2429 10.828C14.1363 11.5594 13.3654 12.7004 13.1 14H12V22H6C5.73478 22 5.48043 21.8946 5.29289 21.7071C5.10536 21.5196 5 21.2652 5 21V3C5 2.73478 5.10536 2.48043 5.29289 2.29289C5.48043 2.10536 5.73478 2 6 2H18ZM18 12C18.7956 12 19.5587 12.3161 20.1213 12.8787C20.6839 13.4413 21 14.2044 21 15V16H22V21C22 21.2652 21.8946 21.5196 21.7071 21.7071C21.5196 21.8946 21.2652 22 21 22H15C14.7348 22 14.4804 21.8946 14.2929 21.7071C14.1054 21.5196 14 21.2652 14 21V16H15V15C15 14.2044 15.3161 13.4413 15.8787 12.8787C16.4413 12.3161 17.2044 12 18 12ZM18 14C17.487 14 17 14.45 17 15V16H19V15C19 14.7348 18.8946 14.4804 18.7071 14.2929C18.5196 14.1054 18.2652 14 18 14Z"/></g></g><defs><clipPath id="a"><rect width="24" height="24" fill="white"/></clipPath></defs></svg>

<svg width="24" height="24" fill="none" xmlns="http://www.w3.org/2000/svg"><g clip-path="url(#a)"><path d="M18 2a1 1 0 0 1 1 1l.001 7.1A5.002 5.002 0 0 0 13.1 14H12v8H6a1 1 0 0 1-1-1V3a1 1 0 0 1 1-1h12Zm0 10a3 3 0 0 1 3 3v1h1v5a1 1 0 0 1-1 1h-6a1 1 0 0 1-1-1v-5h1v-1a3 3 0 0 1 3-3Zm0 2c-.513 0-1 .45-1 1v1h2v-1a1 1 0 0 0-1-1Z" /></g><defs><clipPath id="a"><path fill="#fff" d="M0 0h24v24H0z"/></clipPath></defs></svg>
